!!!OTL: Qiaodui wugeng
!!!ARE: Asia, China,ÿLiaoning, Xinjin
!! III, 277
!!!SCT: C1560
!!!YEM: Copyright 1995, estate of Helmut Schaffrath.
**kern
*ICvox
*Ivox
*M2/4
*k[b-e-]
*B-:
{8.ff
16dd
4cc
=1
8.ff
16dd
4cc
=2
8.cc
16dd
8cc
8b-
=3
8f
16d
16f
4g}
=4
{8g
8g
8g
8b-
=5
8cc
8b-
8cc
8cc
=6
8g
8g
16cc
16b-
8g
=7
2f}
=8
{8.d
16f
8.d
16f
=9
2g}
=10
{8.ff
16dd
4cc
=11
8.ff
16dd
8cc
8cc
=12
8.cc
16dd
8cc
8b-
=13
8g
4cc
16b-
16g
=14
4.e-
8f
=15
2g}
=16
{8g
8g
8g
8b-
=17
8cc
8b-
4cc
=18
8g
8g
8b-
8g
=19
2f
=20
8g
4b-
8d
=21
2c}
==
!!!AGN: Xiaodiao, Qingge
!!!AMT: simple duple
!!!AIN: vox
!!!EED: Helmut Schaffrath
!!!EEV: 1.0
*-
